src/pos-icons/square-off.svg

<svg height="24" viewBox="0 0 24 24" width="24" xmlns="http://www.w3.org/2000/svg"><path d="m20.84 22.73-1.73-1.73h-16.11v-16.11l-1.89-1.89 1.28-1.27 19.72 19.73zm.16-19.73h-14.8l14.8 14.8z"/></svg>

<?xml version="1.0" encoding="UTF-8"?><!DOCTYPE svg PUBLIC "-//W3C//DTD SVG 1.1//EN" "http://www.w3.org/Graphics/SVG/1.1/DTD/svg11.dtd"><svg xmlns="http://www.w3.org/2000/svg" xmlns:xlink="http://www.w3.org/1999/xlink" version="1.1" id="mdi-square-off" width="24" height="24" viewBox="0 0 24 24"><path d="M20.84 22.73L19.11 21H3V4.89L1.11 3L2.39 1.73L22.11 21.46L20.84 22.73M21 3H6.2L21 17.8V3Z" /></svg>
